shader_type canvas_item;
uniform sampler2D alpha_tex : filter_linear, repeat_disable;
uniform sampler2D particle_buffer : filter_nearest, repeat_disable;
uniform sampler2D gradient_texture : filter_linear, repeat_disable, source_color;
uniform int compute_texture_size;
uniform vec2 viewport_size;
uniform float min_speed = 0.0;
uniform float max_speed = 1.0;
uniform int species_count = 8; // TODO: need to update from GDSCRIPT
uniform vec2 camera_center;
uniform float zoom;
varying flat int v_instance_id;
varying flat int v_species_id;

void vertex() {
	int id = INSTANCE_ID;
	v_instance_id = id;
	v_species_id = int(INSTANCE_CUSTOM.r);
	
	ivec2 texel = ivec2(id % compute_texture_size,
						id / compute_texture_size);
	vec4 data = texelFetch(particle_buffer, texel, 0);
	vec2 pos = data.rg;
	//vec2 vel = data.ba;

	// transform pos
	vec2 world_pos = pos;
	vec2 view_pos = (world_pos - camera_center) * zoom;
	vec2 screen_center = viewport_size * 0.5;
	vec2 local = VERTEX;
	
	float radius = 20.0 * zoom;
	local *= radius;

	VERTEX = view_pos + screen_center + local;
}

vec3 species_color_dynamic(int species) {
    // Map species index to 0..1 range
    float t = float(species) / max(float(species_count - 1), 1.0);
	return texture(gradient_texture, vec2(t, 1.0)).rgb;
}

void fragment() {
	int id = v_instance_id;
	ivec2 texel = ivec2(id % compute_texture_size,
						id / compute_texture_size);
	vec4 data = texelFetch(particle_buffer, texel, 0);
	vec2 vel = data.ba;
	
	// Compute color from particle species type
	vec3 rgb = species_color_dynamic(v_species_id);
	vec4 color = vec4(rgb, 1.0);

	// Sample and set
	float alpha = texture(alpha_tex, UV).a;
	if(alpha < 0.001) discard;
	COLOR = vec4(color.rgb, color.a * alpha);
}
